X: 8652
T: Cross At The Wood, The
R: reel
M: 4/4
K: Eminor
|:ef|eBB2 e2dB|A2dA FAdf|eBB2 e2fe|dBAF E2ef|
eBB2 e2dB|A2dA FAdf|g2ef ged^c|dBAF E2:|
f2|e2ge Bege|f2df afdf|e2ge Bege|dBAF E2ef|
e2ge Bege|f2df afdf|g2ef ged^c|dBAF E2:|

